Origami/64x64/apps/auryo.svg

<svg width="64" height="64" version="1.1" viewBox="0 0 64 64" xmlns="http://www.w3.org/2000/svg">
 <circle cx="32" cy="33" r="28" style="opacity:.2"/>
 <circle cx="32" cy="32" r="28" style="fill:#4f4f4f"/>
 <path d="m32 16a13 13 0 0 0 -13 13v4.214844a5.5 5.5 0 0 0 -4 5.285156 5.5 5.5 0 0 0 5.5 5.5 5.5 5.5 0 0 0 2.5 -0.607422v0.607422h3v-5.5-5.5h-3v0.601562a5.5 5.5 0 0 0 -1 -0.390624v-4.210938a10 10 0 0 1 10 -10 10 10 0 0 1 10 10v4.214844a5.5 5.5 0 0 0 -4 5.285156 5.5 5.5 0 0 0 5.5 5.5 5.5 5.5 0 0 0 5.5 -5.5 5.5 5.5 0 0 0 -4 -5.289062v-4.210938a13 13 0 0 0 -13 -13zm-11.5 20a2.5 2.5 0 0 1 2.5 2.5 2.5 2.5 0 0 1 -2.5 2.5 2.5 2.5 0 0 1 -2.5 -2.5 2.5 2.5 0 0 1 2.5 -2.5zm23 0a2.5 2.5 0 0 1 2.5 2.5 2.5 2.5 0 0 1 -2.5 2.5 2.5 2.5 0 0 1 -2.5 -2.5 2.5 2.5 0 0 1 2.5 -2.5z" style="opacity:.2"/>
 <path d="m32 15a13 13 0 0 0 -13 13v4.214844a5.5 5.5 0 0 0 -4 5.285156 5.5 5.5 0 0 0 5.5 5.5 5.5 5.5 0 0 0 2.5 -0.607422v0.607422h3v-5.5-5.5h-3v0.601562a5.5 5.5 0 0 0 -1 -0.390624v-4.210938a10 10 0 0 1 10 -10 10 10 0 0 1 10 10v4.214844a5.5 5.5 0 0 0 -4 5.285156 5.5 5.5 0 0 0 5.5 5.5 5.5 5.5 0 0 0 5.5 -5.5 5.5 5.5 0 0 0 -4 -5.289062v-4.210938a13 13 0 0 0 -13 -13zm-11.5 20a2.5 2.5 0 0 1 2.5 2.5 2.5 2.5 0 0 1 -2.5 2.5 2.5 2.5 0 0 1 -2.5 -2.5 2.5 2.5 0 0 1 2.5 -2.5zm23 0a2.5 2.5 0 0 1 2.5 2.5 2.5 2.5 0 0 1 -2.5 2.5 2.5 2.5 0 0 1 -2.5 -2.5 2.5 2.5 0 0 1 2.5 -2.5z" style="fill:#2993e4"/>
 <path d="M 32 4 A 28 28 0 0 0 4 32 A 28 28 0 0 0 4.0214844 32.585938 A 28 28 0 0 1 32 5 A 28 28 0 0 1 59.978516 32.414062 A 28 28 0 0 0 60 32 A 28 28 0 0 0 32 4 z" style="fill:#ffffff;opacity:.1"/>
</svg>

<svg xmlns="http://www.w3.org/2000/svg" width="64" height="64" version="1.1" viewBox="0 0 64 64">
 <circle cx="32" cy="33" r="28" style="opacity:0.2"/>
 <circle style="fill:#4f4f4f" cx="32" cy="32" r="28"/>
 <path d="M 32,16 A 13,13 0 0 0 19,29 l 0,4.214844 A 5.5,5.5 0 0 0 15,38.5 5.5,5.5 0 0 0 20.5,44 5.5,5.5 0 0 0 23,43.392578 L 23,44 l 3,0 0,-5.5 0,-5.5 -3,0 0,0.601562 A 5.5,5.5 0 0 0 22,33.210938 L 22,29 A 10,10 0 0 1 32,19 10,10 0 0 1 42,29 l 0,4.214844 A 5.5,5.5 0 0 0 38,38.5 5.5,5.5 0 0 0 43.5,44 5.5,5.5 0 0 0 49,38.5 5.5,5.5 0 0 0 45,33.210938 L 45,29 A 13,13 0 0 0 32,16 Z M 20.5,36 A 2.5,2.5 0 0 1 23,38.5 2.5,2.5 0 0 1 20.5,41 2.5,2.5 0 0 1 18,38.5 2.5,2.5 0 0 1 20.5,36 Z m 23,0 A 2.5,2.5 0 0 1 46,38.5 2.5,2.5 0 0 1 43.5,41 2.5,2.5 0 0 1 41,38.5 2.5,2.5 0 0 1 43.5,36 Z" style="opacity:0.2"/>
 <path style="fill:#2993e4" d="M 32 15 A 13 13 0 0 0 19 28 L 19 32.214844 A 5.5 5.5 0 0 0 15 37.5 A 5.5 5.5 0 0 0 20.5 43 A 5.5 5.5 0 0 0 23 42.392578 L 23 43 L 26 43 L 26 37.5 L 26 32 L 23 32 L 23 32.601562 A 5.5 5.5 0 0 0 22 32.210938 L 22 28 A 10 10 0 0 1 32 18 A 10 10 0 0 1 42 28 L 42 32.214844 A 5.5 5.5 0 0 0 38 37.5 A 5.5 5.5 0 0 0 43.5 43 A 5.5 5.5 0 0 0 49 37.5 A 5.5 5.5 0 0 0 45 32.210938 L 45 28 A 13 13 0 0 0 32 15 z M 20.5 35 A 2.5 2.5 0 0 1 23 37.5 A 2.5 2.5 0 0 1 20.5 40 A 2.5 2.5 0 0 1 18 37.5 A 2.5 2.5 0 0 1 20.5 35 z M 43.5 35 A 2.5 2.5 0 0 1 46 37.5 A 2.5 2.5 0 0 1 43.5 40 A 2.5 2.5 0 0 1 41 37.5 A 2.5 2.5 0 0 1 43.5 35 z"/>
 <path style="fill:#ffffff;opacity:0.1" d="M 32 4 A 28 28 0 0 0 4 32 A 28 28 0 0 0 4.0214844 32.585938 A 28 28 0 0 1 32 5 A 28 28 0 0 1 59.978516 32.414062 A 28 28 0 0 0 60 32 A 28 28 0 0 0 32 4 z"/>
</svg>
